X:565
T: Shiliuqing
N: C1985
O: China, Guangxi Liuzhou
S: II, 489]
R: Shange]
M: 2/4
L: 1/16
K: Ab
c2B2A2B2 | c4B4 | E8
c4B2A2 | F2E2F2A2 | B2A2F2E2 | E8
c2c2c2c2 | c2B2A2B2 | c4B4 | E8
c4B2A2 | F2E2F2A2 | B2A2F2E2 | E4F2A2 | B2A2F2E2 | E8

